icon-themes/sifr_svg/framework/res/folder_32.svg

<svg viewBox="0 0 32 32" xmlns="http://www.w3.org/2000/svg"><g fill="#555753"><path d="m10.625 1c-.9168.175-1.64144 1.0668-1.625 2v14h2v-14h11v5h5v9h2v-8.875c.012-.5282-.1952-1.0579-.5625-1.4375l-5.125-5.125c-.37956-.3674-.90938-.57474-1.4375-.5625h-10.875c-.0624-.002-.1251-.002-.1875 0-.0624-.002-.1251-.002-.1875 0z"/><path d="m7 9c-1.70901.0527-.1948169.0018375-1.9042969.0234375-1.60378-.00005-4.0957031 1.3734325-4.0957031 2.9765625v16c0 1.60314 1.3962246 3 3 3h21.134766 1.453125c1.60877 0 2.516023-1.341284 2.902343-2.902344l1.509766-6.097656c.400827-1.547789-.949824-3-2.558594-3h-9.441406-10l-2.6914062 8.189453c-.1372101.52701-.7383938.810547-1.3085938.810547-.65509 0-1-.565258-1-1.242188 0 0-.004-5.757812 0-8.757812 0-1.60313 1.2048037-2.964844 2.8085938-2.964844l.1914062-.035156z"/></g></svg>

<svg xmlns="http://www.w3.org/2000/svg" viewBox="0 0 32 32">
 <path
     style="fill:#555753"
     d="M 10.625 1 C 9.7082 1.175 8.98356 2.0668 9 3 L 9 17 L 11 17 L 11 3 L 22 3 L 22 8 L 27 8 L 27 17 L 29 17 L 29 8.125 C 29.012 7.5968 28.8048 7.0671 28.4375 6.6875 L 23.3125 1.5625 C 22.93294 1.1951 22.40312 0.98776 21.875 1 L 11 1 C 10.9376 0.998 10.8749 0.998 10.8125 1 C 10.7501 0.998 10.6874 0.998 10.625 1 z "
     />
 <path
     style="fill:#555753"
     d="M 7 9 C 5.29099 9.0527 6.8051831 9.0018375 5.0957031 9.0234375 C 3.4919231 9.0233875 1 10.39687 1 12 L 1 28 C 1 29.60314 2.3962246 31 4 31 L 25.134766 31 L 26.587891 31 C 28.196661 31 29.103914 29.658716 29.490234 28.097656 L 31 22 C 31.400827 20.452211 30.050176 19 28.441406 19 L 19 19 L 9 19 L 6.3085938 27.189453 C 6.1713837 27.716463 5.5702 28 5 28 C 4.34491 28 4 27.434742 4 26.757812 C 4 26.757812 3.996 21 4 18 C 4 16.39687 5.2048037 15.035156 6.8085938 15.035156 L 7 15 L 7 9 z "
     />
 </svg>
